X: 13063
T: Finnegans Wake
R: polka
M: 2/4
K: Gmajor
"Em"BB/B/ BA|Be e3/2f/|gf ed|"D"BA A2|
"Em"BB/B/ BA|Be e3/2f/|gf ed|"D"ef "G"g2:|
"G"gg/g/ ga|gf ed|gg/g/ ga|gf "Em"e2|
"G"gg/g/ ga|gf ed|"C"e3/2d/ e3/2d/|"D"ef "G"g2:|

